X:78
T:T047D- Oran Gaoil
S:SMM #273
Q:1/4=120
L:1/4
M:3/4
K:Dm
d|(cA)c|dde|f3/2g/f|(f3/2e/2)d|cAf|{f/}e2d|\
cAd|D2E|F3/2G/ (A/B/)|cAF|GAc|d3/2e/f|c/A3/2F|A3/2B/ A/G/|\
F3/2G/E|D2||A|(d3/2e/2)d|{d/}c2A|f2f|{f/}e2d|(cA)f|{f/}e2d|\
cAd|D2E|F3/2G/ (A/B/)|cAF|GAc|d3/2e/f|cAF|A2A/G/|F3/2G/E|D2|]

